X: 47
T: Missa Ma maistresse / Gloria
N: Derived from Ock1009b-Missa_Ma_maistresse-Gloria.krn
C: Johannes Ockeghem
%%abc-version 2.0
%%abcx-abcm2ps-target-version 5.9.1 (29 Sep 2008)
%%abc-creator hum2abc beta
%%abcx-conversion-date 2019/02/17 07:26:15
%%abc-edited-by Jesse Rodin
%%abc-edited-by Chris Gage 06-13-2012
%%abcx-initial-encoding-date 2012/08/15/
%%humdrum-veritas 1635073455
%%humdrum-veritas-data 2478039321
%%linebreak <none>
%%barnumbers 0
L: 1/4
M: 3/1
Q: 1/2=120
%%staves [1 2 3 4]
V: 1 clef=treble
V: 2 clef=treble-8
V: 3 clef=treble-8
V: 4 clef=bass
K: F
[V:1] c4A2d3c/B/A2 | 
[V:2] f4fedcB2c2 | 
[V:3] z12 | 
[V:4] z12 | 
[V:1] G2A4GFE4 | 
[V:2] B2c2d4c4 | 
[V:3] z12 | 
[V:4] z4z4C,4- | 
[V:1] E4A6F2 | 
[V:2] c4e4d4 | 
[V:3] c6A2A4 | 
[V:4] C,2A,,2A,,4D,4- | 
[V:1] F2D2G8 | 
[V:2] z4d6e2 | 
[V:3] d6B2B2G2 | 
[V:4] D,2B,,2B,,2G,,2z2C,2- | 
[V:1] A6F2G3F | 
[V:2] c4A2B2z2c2 | 
[V:3] c4d2f4e2 | 
[V:4] C,2F,4D,2C,3A,, | 
[V:1] G2A4F2G2B2- | 
[V:2] d2e2f4B4 | 
[V:3] d2c4A2G4 | 
[V:4] B,,2A,,2F,,4z4 | 
[V:1] B2A2B2A2B2c2 | 
[V:2] c4d2c2B2AG | 
[V:3] F6E2D2C2 | 
[V:4] F,4B,,2C,2D,2E,2 | 
[V:1] A4z4z4 | 
[V:2] F2E2F4G4 | 
[V:3] A3G/A/GFF4E2 | 
[V:4] F,2C,2D,4C,4 | 
[V:1] A6F2A4 | 
[V:2] F4A3Bc2d2 | 
[V:3] F4z4F4 | 
[V:4] z2F,,4F,4D,2 | 
[V:1] G4F4E4 | 
[V:2] z2c3AB2c4 | 
[V:3] E4D4C2E2 | 
[V:4] E,2C,2z2F,2G,2C,2 | 
[V:1] F2G2A4B2c2- | 
[V:2] z2d2e2f2d2c2 | 
[V:3] D2G4F2G2A2 | 
[V:4] D,2G,,2z2D,2B,,2A,,2- | 
[V:1] cBG2A2F2E2zF- | 
[V:2] e4d4z2G2 | 
[V:3] G2c4B2c2d2 | 
[V:4] A,,B,,C,2D,4C,2B,,2 | 
[V:1] FEF2G4A2F2- | 
[V:2] A2c3BG2F3G | 
[V:3] c2f4e2f4 | 
[V:4] A,,2F,,2C,4z2D,2- | 
[V:1] FEC2D4C4 | 
[V:2] ABc2z2B2G4- | 
[V:3] z4f4e2g2- | 
[V:4] D,C,A,,2B,,4C,4 | 
[V:1] z4F2G2A2G2- | 
[V:2] G2F2A2B2c4 | 
[V:3] g2c2d2e4e2 | 
[V:4] E,2F,4E,2C,4 | 
[V:1] G2c3BG2A2c2 | 
[V:2] z2A2G2c4BA | 
[V:3] e2e2e4e4 | 
[V:4] C,3D,E,4A,,4 | 
[V:1] BAA4G2A4 | 
[V:2] G2A2B4z2A2 | 
[V:3] g3fd4e4- | 
[V:4] z4z4A,,4 | 
[V:1] z12 | 
[V:2] G2c3=B=BAc3A | 
[V:3] e4f4e4- | 
[V:4] C,4D,4C,3D, | 
[V:1] z12 | 
[V:2] G2A2F2f4e2 | 
[V:3] e2c2d2c4B2 | 
[V:4] E,2F,4A,2G,4 | 
[V:1] A3Bd2c4A2 | 
[V:2] f2F2G2A3Ff2- | 
[V:3] c4z4A3B | 
[V:4] F,4B,,2A,,2D,4 | 
[V:1] B2G2F4z4 | 
[V:2] fde2c2d4cB | 
[V:3] d2c4A2B2G2 | 
[V:4] B,,2C,2F,,2F,2G,2E,2 | 
[V:1] c4d4c2A2- | 
[V:2] A4B2G2A4 | 
[V:3] F4z4c4 | 
[V:4] z2F,2B,,4A,,4 | 
[V:1] A2B3AA4G2 | 
[V:2] D4z4d4 | 
[V:3] d6c2B4 | 
[V:4] F,,2G,,4A,,2B,,2G,,2 | 
[V:1] F2E2F4E4 | 
[V:2] c4A8 | 
[V:3] A4z4c4 | 
[V:4] z2A,,4F,,3G,,A,,2 | 
[V:1] D2F2G2A4F2 | 
[V:2] B2A2B2A2F3G | 
[V:3] d4e2f4d2 | 
[V:4] z2D,2G,2F,2D,4 | 
[V:1] E4F2G4c2 | 
[V:2] A6B2c4 | 
[V:3] c6d2e3d/e/ | 
[V:4] z2A,4G,2E,4 | 
[V:1] B2A4G4^F2 | 
[V:2] d4G4A4 | 
[V:3] f4e2d4c2 | 
[V:4] D,4z4z4 | 
[V:1] G3F/E/D2E2F2G2 | 
[V:2] G8A2G2 | 
[V:3] d4z4c4 | 
[V:4] G,,4B,,2C,2zF,,C,2 | 
[V:1] z2G2A2B2c4 | 
[V:2] F2G2z2F3DE2 | 
[V:3] B4A2A4GA | 
[V:4] D,2E,2F,2D,2C,4 | 
[V:1] z2F2G2A2B4 | 
[V:2] F2D2E2F2G4 | 
[V:3] B3AGFF4E2 | 
[V:4] B,,4z4z4 | 
[V:1] A4G2F2D4 | 
[V:2] z2F2G2A4B2 | 
[V:3] F4z4f4 | 
[V:4] F,4E,2D,4B,,2 | 
[V:1] C2F2G2A2G2z2 | 
[V:2] G2z2B2A2c3B | 
[V:3] e2d3cc3BAG | 
[V:4] C,2D,2B,,2C,3G,,C,2 | 
[V:1] G2F2B3GA2B2- | 
[V:2] G2z2F2c4d2- | 
[V:3] c2d2f3ee2d2 | 
[V:4] E,2D,4C,4B,,2- | 
[V:1] BGB2c2d2c2F2 | 
[V:2] dcd2c2B2G2A2 | 
[V:3] g4f4e2d2- | 
[V:4] B,,C,G,,2A,,2B,,2C,2D,2 | 
[V:1] G2A2B2G3AF2 | 
[V:2] G2F2E2G3EF2 | 
[V:3] dcBAG2c4=B2 | 
[V:4] E,2F,2G,2E,2D,4 | 
[V:1] E12 ||  
[V:2] G12 ||  
[V:3] c12 ||  
[V:4] C,12 ||  
[V:1]  [K:F] [K:clef=treble][M:3/1]z12 | 
[V:2]  [K:F] [K:clef=treble-8][M:3/1]A8A4 | 
[V:3]  [K:F] [K:clef=treble-8][M:3/1]z12 | 
[V:4]  [K:F] [K:clef=bass][M:3/1]F,6E,D,C,3B,,/A,,/ | 
[V:1] z12 | 
[V:2] B4A2F2G3/F/ED | 
[V:3] z12 | 
[V:4] G,,4F,,2B,,4C,2 | 
[V:1] z12 | 
[V:2] F4G4BA/B/AG | 
[V:3] z12 | 
[V:4] D,3C,B,,A,,G,,4D,2 | 
[V:1] z12 | 
[V:2] c2BA2GG3F/G/FD | 
[V:3] z12 | 
[V:4] C,2D,4B,,2A,,2zD,- | 
[V:1] z12 | 
[V:2] A2G2FEC2D4 | 
[V:3] z12 | 
[V:4] D,C,2B,,A,,G,,A,,C,2=B,,/A,,/=B,,3/A,,/ | 
[V:1] z12 | 
[V:2] C4z4G4 | 
[V:3] z12 | 
[V:4] C,4D,4E,4 | 
[V:1] z12 | 
[V:2] A4B4c4 | 
[V:3] z12 | 
[V:4] F,4z2D,2E,2C,2 | 
[V:1] z12 | 
[V:2] c2d4c2A2B2- | 
[V:3] z12 | 
[V:4] F,4B,,2C,4D,2 | 
[V:1] z12 | 
[V:2] BAGFG3FA3B | 
[V:3] z12 | 
[V:4] A,,4B,,3A,,F,,4 | 
[V:1] z12 | 
[V:2] c4z4F4 | 
[V:3] z12 | 
[V:4] z2F,,2G,,2A,,4B,,2 | 
[V:1] z12 | 
[V:2] E3FG2A3GFE | 
[V:3] z12 | 
[V:4] C,8z4 | 
[V:1] z12 | 
[V:2] A2G4E2D2G2- | 
[V:3] z12 | 
[V:4] C,8B,,4 | 
[V:1] z12 | 
[V:2] G2A2G2c4B2 | 
[V:3] z12 | 
[V:4] C,2F,,2C,4D,4 | 
[V:1] z12 | 
[V:2] c3BG4A2c2- | 
[V:3] z12 | 
[V:4] E,2F,2z2E,2F,3E, | 
[V:1] z12 | 
[V:2] c2B2G2FGA2GA | 
[V:3] z12 | 
[V:4] F,2G,E,3/D,/C,/B,,/A,,G,,C,3/D,/E,F, | 
[V:1] z12 | 
[V:2] Gc2BA2G/F/E/D/Cc2d- | 
[V:3] z12 | 
[V:4] G,A,2G,2F,E,C,E,2F,2 | 
[V:1] z12 | 
[V:2] dc2FEF2EDCD2 | 
[V:3] z12 | 
[V:4] C,2D,2A,,4B,,3A,, | 
[V:1] z12 | 
[V:2] C2z2G2A2G2EF- | 
[V:3] z12 | 
[V:4] F,,2C,B,,C,3A,,B,,C,2A,, | 
[V:1] z12 | 
[V:2] FDC2F2A2G4 | 
[V:3] z12 | 
[V:4] B,,2A,,2D,2C,C,2B,,C,B,, | 
[V:1] z12 | 
[V:2] C2D2C2F4E2 | 
[V:3] z12 | 
[V:4] C,A,,B,,A,,F,,4G,,4 | 
[V:1] z12 ||  
[V:2] F12 ||  
[V:3] z12 ||  
[V:4] F,,12 ||  
[V:1]  [K:F] [K:clef=treble][M:2/1]E6F2 | 
[V:2]  [K:F] [K:clef=treble-8][M:2/1]c6BA | 
[V:3]  [K:F] [K:clef=treble-8][M:2/1]z8 | 
[V:4]  [K:F] [K:clef=bass][M:2/1]C,8 | 
[V:1] G4G4 | 
[V:2] G4E4 | 
[V:3] z8 | 
[V:4] C,4C,4 | 
[V:1] A4A4 | 
[V:2] F4A4 | 
[V:3] z8 | 
[V:4] A,,4F,,4 | 
[V:1] B4B4 | 
[V:2] G4G4 | 
[V:3] z8 | 
[V:4] G,,4G,,4 | 
[V:1] A3FG4 | 
[V:2] F3DC4 | 
[V:3] z8 | 
[V:4] D,4E,4 | 
[V:1] A4c4- | 
[V:2] c6BA | 
[V:3] A6B2 | 
[V:4] F,4F,4 | 
[V:1] c2BAG4 | 
[V:2] G4z2G2 | 
[V:3] c4c4 | 
[V:4] E,4E,4 | 
[V:1] z2F2D2F2- | 
[V:2] A2B4AG | 
[V:3] d6cB | 
[V:4] D,4B,,C,D,E, | 
[V:1] F2EDC4 | 
[V:2] F2c4A2 | 
[V:3] A4z4 | 
[V:4] F,8 | 
[V:1] F4G2A2- | 
[V:2] B3AG2F2 | 
[V:3] d4c4 | 
[V:4] z2D,2E,2F,2- | 
[V:1] A2B2G4 | 
[V:2] D2d2cBc2 | 
[V:3] d4e4 | 
[V:4] F,2G,2E,4 | 
[V:1] A2B2c3B | 
[V:2] z2d2A2c2- | 
[V:3] f6ed | 
[V:4] D,4z4 | 
[V:1] AGG4^F2 | 
[V:2] cBG2A4 | 
[V:3] c2B2c4 | 
[V:4] z8 | 
[V:1] G2A2F2G2- | 
[V:2] G2F2D2E2- | 
[V:3] d6c2 | 
[V:4] z8 | 
[V:1] G2E2D4 | 
[V:2] E2C2G4 | 
[V:3] B2A2B4 | 
[V:4] z4G,,4 | 
[V:1] C3DE2F2 | 
[V:2] E4z4 | 
[V:3] c2A2A4- | 
[V:4] A,,3B,,C,2D,2- | 
[V:1] D2D4^C2 | 
[V:2] z8 | 
[V:3] A2F2G4 | 
[V:4] D,2F,2E,4 | 
[V:1] D8 | 
[V:2] D4D3E | 
[V:3] A8 | 
[V:4] D,2F,3E,D,C, | 
[V:1] z8 | 
[V:2] F2E2C4 | 
[V:3] B2A2G2F2 | 
[V:4] B,,2C,4A,,2 | 
[V:1] z8 | 
[V:2] G4C3D | 
[V:3] E4A4- | 
[V:4] G,,2C,3B,,A,,G,, | 
[V:1] z8 | 
[V:2] F2E3DD2- | 
[V:3] A4G4- | 
[V:4] F,,2C,3B,,B,,2 | 
[V:1] z8 | 
[V:2] D2C4D2- | 
[V:3] G2F2F4- | 
[V:4] G,,2A,,4B,,2 | 
[V:1] z8 | 
[V:2] D2C2z2B,2 | 
[V:3] F2D2E4 | 
[V:4] F,,4G,,4 | 
[V:1] z8 | 
[V:2] C4D4 | 
[V:3] F8 | 
[V:4] F,,4z2B,,2 | 
[V:1] z8 | 
[V:2] E3CD2C2 | 
[V:3] z8 | 
[V:4] A,,2C,2B,,2C,2- | 
[V:1] z8 | 
[V:2] E2D2G3A | 
[V:3] z8 | 
[V:4] C,2B,,2G,,2C,2- | 
[V:1] z8 | 
[V:2] c2B2Ad2c | 
[V:3] z8 | 
[V:4] C,2D,2F,2E,2 | 
[V:1] z8 | 
[V:2] d2B2c3B | 
[V:3] z8 | 
[V:4] D,2G,2E,2F,2- | 
[V:1] z8 | 
[V:2] AGFEF3G | 
[V:3] A6B2 | 
[V:4] F,E,D,C,D,4 | 
[V:1] E8 | 
[V:2] A2G4AB | 
[V:3] c6d2 | 
[V:4] C,8- | 
[V:1] G4G4 | 
[V:2] c2A2G4 | 
[V:3] e4e4 | 
[V:4] C,8 | 
[V:1] A4F2F2- | 
[V:2] z4A4 | 
[V:3] f6e2 | 
[V:4] z2F,3E,D,C, | 
[V:1] F2D2E4 | 
[V:2] B4G3F | 
[V:3] d4c4 | 
[V:4] B,,4C,4 | 
[V:1] F4G4 | 
[V:2] D4z2G2- | 
[V:3] d6cB | 
[V:4] z4G,,4 | 
[V:1] z2c2B2G2- | 
[V:2] GF/E/F2G3C | 
[V:3] A4G4 | 
[V:4] A,,4B,,2C,2- | 
[V:1] G4F2A2- | 
[V:2] G2E2D2F2- | 
[V:3] B6A2 | 
[V:4] C,B,,C,2D,4 | 
[V:1] AGGFA4 | 
[V:2] FEEDF4 | 
[V:3] c6A2 | 
[V:4] C,4z2F,,2 | 
[V:1] G2E2D4 | 
[V:2] z4F2G2- | 
[V:3] B2c2d4- | 
[V:4] G,,2A,,2B,,2G,,2- | 
[V:1] z8 | 
[V:2] GDF2G2A2 | 
[V:3] d2c2B2A2 | 
[V:4] G,,2A,,2G,,2D,2- | 
[V:1] z8 | 
[V:2] F2G4A2- | 
[V:3] B4c4- | 
[V:4] D,C,/D,/E,3D,C,B,, | 
[V:1] z8 | 
[V:2] A2F2E2F2- | 
[V:3] c2A2A4- | 
[V:4] A,,2D,2C,2D,2- | 
[V:1] z8 | 
[V:2] FEDCD4 | 
[V:3] A4G4 | 
[V:4] D,C,B,,A,,B,,4 | 
[V:1] C4F4 | 
[V:2] z4D4 | 
[V:3] A8 | 
[V:4] A,,4z4 | 
[V:1] G2A4A2 | 
[V:2] E2F3EDC | 
[V:3] z8 | 
[V:4] z8 | 
[V:1] B2A2B2c2 | 
[V:2] G2F2G2E2 | 
[V:3] z8 | 
[V:4] z8 | 
[V:1] A4z4 | 
[V:2] F4A4 | 
[V:3] z8 | 
[V:4] z2F,3E,D,C, | 
[V:1] z8 | 
[V:2] B4A2c2 | 
[V:3] z8 | 
[V:4] B,,3A,,/G,,/F,,4 | 
[V:1] z8 | 
[V:2] B2c4A2 | 
[V:3] z8 | 
[V:4] G,,2A,,3B,,C,D, | 
[V:1] z8 | 
[V:2] G2C2z2C2 | 
[V:3] z8 | 
[V:4] E,4A,,2E,2- | 
[V:1] z8 | 
[V:2] G2F2G2A2- | 
[V:3] z8 | 
[V:4] E,C,D,2C,2F,2- | 
[V:1] z8 | 
[V:2] A2G2F3E/D/ | 
[V:3] z8 | 
[V:4] F,E,C,2D,4 | 
[V:1] z8 | 
[V:2] C4z4 | 
[V:3] z8 | 
[V:4] E,D,C,B,,A,,2F,,2 | 
[V:1] F8 | 
[V:2] F8 | 
[V:3] A6B2 | 
[V:4] z2F,4E,D, | 
[V:1] E4E4 | 
[V:2] G4A4 | 
[V:3] c4c4 | 
[V:4] C,4C,4 | 
[V:1] D2F4ED | 
[V:2] B8 | 
[V:3] d6cB | 
[V:4] B,,8 | 
[V:1] C4C2F2- | 
[V:2] c4F4 | 
[V:3] A4A4 | 
[V:4] F,4z2D,2 | 
[V:1] F2F2G2A2- | 
[V:2] B2A2G2F2 | 
[V:3] d4c4 | 
[V:4] B,,2D,2E,2F,2- | 
[V:1] A2F2G4 | 
[V:2] A2B2c2c2- | 
[V:3] d4e4 | 
[V:4] F,2D,2C,4 | 
[V:1] F4z2F2- | 
[V:2] c2F2A4 | 
[V:3] f6ed | 
[V:4] A,,2D,4C,B,, | 
[V:1] F2G2A2A2 | 
[V:2] z2D2F2E2 | 
[V:3] c2B2c4 | 
[V:4] A,,2B,,2A,,4 | 
[V:1] B4A4 | 
[V:2] G4F4 | 
[V:3] d6cB | 
[V:4] G,,4D,4 | 
[V:1] z2F4ED | 
[V:2] E2F2D4 | 
[V:3] A4B4 | 
[V:4] C,2D,4B,,2 | 
[V:1] C4c4- | 
[V:2] E2F4E2 | 
[V:3] c2A2A4- | 
[V:4] A,,2F,,4C,2- | 
[V:1] c2BAB2c2 | 
[V:2] F4z2C2 | 
[V:3] A4G4 | 
[V:4] C,D,F,4E,2 | 
[V:1] F2E3CF2 | 
[V:2] FGABc2C2 | 
[V:3] A8 | 
[V:4] D,2C,4A,,2 | 
[V:1] G2B2A2G2 | 
[V:2] D2E2F2E2 | 
[V:3] z8 | 
[V:4] G,,4F,,2C,2- | 
[V:1] E4A4- | 
[V:2] C4E4 | 
[V:3] c6A2 | 
[V:4] C,2A,,2A,,4 | 
[V:1] A2F2F2D2 | 
[V:2] F3GA2B2 | 
[V:3] A4d4- | 
[V:4] D,6B,,2 | 
[V:1] G3FD2E2- | 
[V:2] G8 | 
[V:3] d2B2B2G2 | 
[V:4] B,,2G,,2z2C,2- | 
[V:1] E2A4B2 | 
[V:2] C2c2A2F2 | 
[V:3] c4d2f2- | 
[V:4] C,2F,,2F,2D,2 | 
[V:1] c3c/B/G2A2- | 
[V:2] G3AB2c2 | 
[V:3] f2e2d2c2- | 
[V:4] C,4B,,2A,,2 | 
[V:1] A2F4E2 | 
[V:2] A2c3B/A/GC | 
[V:3] c2A2G4 | 
[V:4] F,,4C,4 | 
[V:1] F8- | 
[V:2] D4C4 | 
[V:3] F8- | 
[V:4] F,,8- | 
[V:1] F8 |]  
[V:2] F8 & c8 |]  
[V:3] F8 |]  
[V:4] F,,8 |]  



